X:83623812955465
T:3-12-4-10-10-5-11-11-4-9-2-3-9-6-4-2
%%setfont-1 Courier-Bold 8
T:$1K.516f::32:130:158:156:75:2:147:33:66:88:26:56:51:136:145:14::$0
T:$1Perm. No.: 83623812955465$0
M:3/8
L:1/8
Q:1/8=111
%%staves [1 2]
V:1 clef=treble
V:2 clef=bass
K:C
%1
[V:1]|: Gce |\
[V:2]|: [E,2C,2]z |\
%2
[V:1] [cE][cE][cE] |\
[V:2] C,C,C,   |\
%3
[V:1] Bd/B/A/G/ |\
[V:2] G,2z |\
%4
[V:1] c/G/e/c/g |\
[V:2] [G,2E,2]z |\
%5
[V:1] [^fd][fd][fd] |\
[V:2] C,C,C,   |\
%6
[V:1] A^F/G/B/g/ |\
[V:2] [G,2B,,2]z |\
%7
[V:1] e/c'/b/g/a/^f/ \
[V:2] C,D,D,, \
%8a
[V:1]|1 [g2d2B2G2]z :|2
[V:2]|1 G,,G,/=F,/E,/D,/ :|2
%8b
[V:1] [g2d2B2G2]z |:\
[V:2] G,,B,/G,/^F,/E,/ |:\
%9
[V:1] ^faf |\
[V:2] A,^F,D, & D,D,C, |\
%10
[V:1] g/d/g/b/g/d/ |\
[V:2] [D,2B,,2][D,B,,] |\
%11
[V:1] [ec][ec][ec] |\
[V:2] C,/E,/G,/E,/C/C,/ |\
%12
[V:1] d/B/Gz |\
[V:2] [G,2G,,2]G, |\
%13
[V:1] c/G/e/c/g/e/ |\
[V:2] [E,2C,2]z |\
%14
[V:1] c'/b/c'/g/e/c/ |\
[V:2] [E,2C,2]z |\
%15
[V:1] d/f/A/d/B/d/ |\
[V:2] F,2G, |\
%16
[V:1] c2z :|]
[V:2] C,G,,C,, :|]
